X: 12
T: THE PERFECT CURE
S: "COUNTRY DANCES OF TODAY 2", CDSS, May Gadd ed., 1951 p.15
R: jig
Z: 2010 John Chambers <jc:trillian.mit.edu>
M: 6/8
L: 1/8
K: D
"A"|: G |\
"D"FGA Dcd | "A7"c2B A2G | "D"FGA DGF | "A7"E3 E2G |\
"D"FGA Dcd | "A7"c2B A2G | "D"FGA "A7"B2c | "D"d3- d2 :|
"B"|: e |\
"D"fed "A"e2d | "A7"c2B A3 | "D"fed c2d | "Em7"e3 "A"e3 |\
"D"fed "A"e2d | "A7"c2B A2B | "D"ABA "A7"B2c | "D"d3- d2 :|


%%sep 5 1 500

%%sep 1 1 500

